src/gui/emoticons/sick.svg

<svg xmlns="http://www.w3.org/2000/svg" xmlns:xlink="http://www.w3.org/1999/xlink" width="16pt" height="16pt" version="1.1" viewBox="0 0 16 16"><defs><linearGradient id="linear0" x1="64" x2="64" y1="110.28" y2="22.3" gradientTransform="matrix(0.125,0,0,-0.125,0,16.25)" gradientUnits="userSpaceOnUse"><stop offset=".566" style="stop-color:#f6a323;stop-opacity:1"/><stop offset=".917" style="stop-color:#fee133;stop-opacity:1"/></linearGradient><clipPath id="clip1"><path d="M 3 8 L 13 8 L 13 14 L 3 14 Z M 3 8"/></clipPath><clipPath id="clip2"><path d="M 8 8.601562 C 5.882812 8.601562 3.582031 10.375 3.582031 12.5625 C 3.582031 13.171875 4.285156 13.527344 4.910156 13.28125 C 5.683594 12.972656 6.828125 12.664062 8 12.664062 C 9.171875 12.664062 10.316406 12.972656 11.089844 13.28125 C 11.714844 13.527344 12.417969 13.171875 12.417969 12.5625 C 12.417969 10.375 9.957031 8.601562 8 8.601562 Z M 8 8.601562"/></clipPath><clipPath id="clip3"><path d="M 3 8 L 13 8 L 13 11 L 3 11 Z M 3 8"/></clipPath><clipPath id="clip4"><path d="M 8 8.601562 C 5.882812 8.601562 3.582031 10.375 3.582031 12.5625 C 3.582031 13.171875 4.285156 13.527344 4.910156 13.28125 C 5.683594 12.972656 6.828125 12.664062 8 12.664062 C 9.171875 12.664062 10.316406 12.972656 11.089844 13.28125 C 11.714844 13.527344 12.417969 13.171875 12.417969 12.5625 C 12.417969 10.375 9.957031 8.601562 8 8.601562 Z M 8 8.601562"/></clipPath><clipPath id="clip5"><path d="M 8 10.128906 C 9.550781 10.128906 10.992188 10.328125 12.128906 10.699219 L 12.128906 7.121094 L 3.871094 7.121094 L 3.871094 10.695312 C 5.007812 10.328125 6.449219 10.128906 8 10.128906 Z M 8 10.128906"/></clipPath><linearGradient id="linear1" x1="64.981" x2="64.981" y1="85.333" y2="125.34" gradientTransform="matrix(0.125,0,0,0.125,0,0)" gradientUnits="userSpaceOnUse"><stop offset="0" style="stop-color:#469643;stop-opacity:1"/><stop offset=".02" style="stop-color:#489743;stop-opacity:1"/><stop offset=".443" style="stop-color:#6db141;stop-opacity:1"/><stop offset=".784" style="stop-color:#84c03f;stop-opacity:1"/><stop offset="1" style="stop-color:#8cc63f;stop-opacity:1"/></linearGradient></defs><g id="surface1"><path style="stroke:none;fill-rule:nonzero;fill:url(#linear0)" d="M 8 14.984375 C 4.507812 14.984375 0.75 12.800781 0.75 8 C 0.75 3.199219 4.507812 1.015625 8 1.015625 C 9.933594 1.015625 11.726562 1.652344 13.046875 2.816406 C 14.488281 4.089844 15.25 5.882812 15.25 8 C 15.25 10.109375 14.488281 11.894531 13.046875 13.171875 C 11.722656 14.34375 9.929688 14.984375 8 14.984375 Z M 8 14.984375"/><path style="stroke:none;fill-rule:nonzero;fill:#eb8f00;fill-opacity:1" d="M 8 1.265625 C 9.875 1.265625 11.609375 1.882812 12.878906 3.003906 C 14.265625 4.230469 15 5.957031 15 8 C 15 10.035156 14.265625 11.757812 12.878906 12.984375 C 11.601562 14.113281 9.871094 14.734375 8 14.734375 C 6.121094 14.734375 4.386719 14.121094 3.121094 13.007812 C 1.734375 11.789062 1 10.058594 1 8 C 1 5.933594 1.734375 4.199219 3.121094 2.980469 C 4.382812 1.875 6.117188 1.265625 8 1.265625 M 8 0.765625 C 4.105469 0.765625 0.5 3.265625 0.5 8 C 0.5 12.710938 4.105469 15.234375 8 15.234375 C 11.894531 15.234375 15.5 12.644531 15.5 8 C 15.5 3.328125 11.894531 0.765625 8 0.765625 Z M 8 0.765625"/><path style="stroke:none;fill-rule:nonzero;fill:#eb8f00;fill-opacity:1" d="M 8 8.601562 C 5.882812 8.601562 3.582031 10.375 3.582031 12.5625 C 3.582031 13.171875 4.285156 13.527344 4.910156 13.28125 C 5.683594 12.972656 6.828125 12.664062 8 12.664062 C 9.171875 12.664062 10.316406 12.972656 11.089844 13.28125 C 11.714844 13.527344 12.417969 13.171875 12.417969 12.5625 C 12.417969 10.375 9.957031 8.601562 8 8.601562 Z M 8 8.601562"/><g clip-path="url(#clip1)" clip-rule="nonzero"><g clip-path="url(#clip2)" clip-rule="nonzero"><path style="stroke:none;fill-rule:nonzero;fill:#242424;fill-opacity:1" d="M 8 8.601562 C 5.882812 8.601562 3.582031 10.375 3.582031 12.5625 C 3.582031 13.171875 4.285156 13.527344 4.910156 13.28125 C 5.683594 12.972656 6.828125 12.664062 8 12.664062 C 9.171875 12.664062 10.316406 12.972656 11.089844 13.28125 C 11.714844 13.527344 12.417969 13.171875 12.417969 12.5625 C 12.417969 10.375 9.957031 8.601562 8 8.601562 Z M 8 8.601562"/></g></g><g clip-path="url(#clip3)" clip-rule="nonzero"><g clip-path="url(#clip4)" clip-rule="nonzero"><g clip-path="url(#clip5)" clip-rule="nonzero"><path style="stroke:none;fill-rule:nonzero;fill:#eb8f00;fill-opacity:1" d="M 8 9.097656 C 8.804688 9.097656 9.769531 9.488281 10.519531 10.109375 C 11.359375 10.808594 11.820312 11.679688 11.820312 12.5625 C 11.820312 12.769531 11.65625 12.863281 11.503906 12.863281 C 11.453125 12.863281 11.398438 12.855469 11.347656 12.832031 C 10.84375 12.632812 9.511719 12.167969 8 12.167969 C 6.488281 12.167969 5.15625 12.632812 4.652344 12.832031 C 4.601562 12.855469 4.546875 12.863281 4.496094 12.863281 C 4.34375 12.863281 4.179688 12.769531 4.179688 12.5625 C 4.179688 10.609375 6.234375 9.097656 8 9.097656 M 8 8.601562 C 5.882812 8.601562 3.582031 10.375 3.582031 12.5625 C 3.582031 13.039062 4.011719 13.359375 4.496094 13.359375 C 4.632812 13.359375 4.773438 13.335938 4.910156 13.28125 C 5.683594 12.972656 6.828125 12.664062 8 12.664062 C 9.171875 12.664062 10.316406 12.972656 11.089844 13.28125 C 11.226562 13.335938 11.367188 13.359375 11.503906 13.359375 C 11.988281 13.359375 12.417969 13.039062 12.417969 12.5625 C 12.417969 10.375 9.957031 8.601562 8 8.601562 Z M 8 8.601562"/></g></g></g><path style="stroke:none;fill-rule:nonzero;fill:#368231;fill-opacity:1" d="M 14.089844 14.027344 C 14.074219 13.921875 13.914062 13.859375 13.734375 13.886719 C 13.550781 13.914062 13.417969 14.019531 13.433594 14.125 C 13.449219 14.234375 13.609375 14.296875 13.789062 14.269531 C 13.972656 14.242188 14.105469 14.136719 14.089844 14.027344 Z M 14.089844 14.027344"/><path style="stroke:none;fill-rule:nonzero;fill:#368231;fill-opacity:1" d="M 2.847656 13.601562 C 2.605469 13.527344 2.371094 13.582031 2.328125 13.722656 C 2.28125 13.867188 2.445312 14.042969 2.683594 14.117188 C 2.925781 14.191406 3.160156 14.136719 3.203125 13.996094 C 3.246094 13.855469 3.085938 13.675781 2.847656 13.601562 Z M 2.847656 13.601562"/><path style="stroke:none;fill-rule:nonzero;fill:url(#linear1)" d="M 12.085938 14.894531 C 12.695312 14.710938 12.917969 14.5 12.890625 14.347656 C 12.851562 14.148438 12 14.121094 11 14.261719 L 11 10.9375 C 11 10.9375 9.984375 10.636719 7.9375 10.636719 C 5.664062 10.636719 4.875 10.9375 4.875 10.9375 L 4.875 13.921875 C 4.25 13.882812 3.777344 13.960938 3.753906 14.128906 C 3.734375 14.265625 4.132812 14.425781 4.617188 14.5625 C 3.671875 14.660156 3.101562 14.8125 3.101562 14.984375 C 3.101562 15.277344 4.90625 15.515625 7.109375 15.515625 C 8.089844 15.515625 9.003906 15.46875 9.699219 15.390625 C 10.0625 15.449219 10.574219 15.484375 11.140625 15.484375 C 12.242188 15.484375 13.140625 15.34375 13.140625 15.171875 C 13.140625 15.050781 12.714844 14.949219 12.085938 14.894531 Z M 12.085938 14.894531"/><path style="stroke:none;fill-rule:nonzero;fill:#368231;fill-opacity:1" d="M 7.582031 13.816406 C 7.582031 13.492188 7.449219 13.230469 7.28125 13.230469 C 7.113281 13.230469 6.980469 13.492188 6.980469 13.816406 C 6.980469 14.144531 7.113281 14.40625 7.28125 14.40625 C 7.449219 14.40625 7.582031 14.144531 7.582031 13.816406 Z M 7.582031 13.816406"/><path style="stroke:none;fill-rule:nonzero;fill:#368231;fill-opacity:1" d="M 8.125 11.738281 C 8.125 11.457031 8 11.230469 7.84375 11.230469 C 7.6875 11.230469 7.5625 11.457031 7.5625 11.738281 C 7.5625 12.023438 7.6875 12.25 7.84375 12.25 C 8 12.25 8.125 12.023438 8.125 11.738281 Z M 8.125 11.738281"/><path style="stroke:none;fill-rule:nonzero;fill:#368231;fill-opacity:1" d="M 10.042969 12.980469 C 10.042969 12.476562 9.820312 12.074219 9.546875 12.074219 C 9.273438 12.074219 9.050781 12.476562 9.050781 12.980469 C 9.050781 13.480469 9.273438 13.886719 9.546875 13.886719 C 9.820312 13.886719 10.042969 13.480469 10.042969 12.980469 Z M 10.042969 12.980469"/><path style="stroke:none;fill-rule:nonzero;fill:#368231;fill-opacity:1" d="M 6.261719 12.289062 C 6.261719 12.0625 6.15625 11.878906 6.027344 11.878906 C 5.894531 11.878906 5.792969 12.0625 5.792969 12.289062 C 5.792969 12.515625 5.894531 12.699219 6.027344 12.699219 C 6.15625 12.699219 6.261719 12.515625 6.261719 12.289062 Z M 6.261719 12.289062"/><path style="stroke:none;fill-rule:nonzero;fill:#368231;fill-opacity:1" d="M 12.792969 14.800781 C 13.078125 14.625 13.132812 14.449219 13.105469 14.3125 C 13.070312 14.128906 12.777344 13.859375 11.25 14.046875 L 11.253906 11 L 10.914062 10.917969 L 10.875 14.480469 L 11.089844 14.449219 C 11.992188 14.320312 12.511719 14.359375 12.695312 14.40625 C 12.621094 14.476562 12.429688 14.59375 12.03125 14.714844 L 11.089844 15 L 12.070312 15.082031 C 12.367188 15.109375 12.578125 15.140625 12.722656 15.171875 C 12.425781 15.234375 11.890625 15.296875 11.140625 15.296875 C 10.609375 15.296875 10.09375 15.261719 9.730469 15.203125 L 9.703125 15.199219 L 9.675781 15.203125 C 8.964844 15.285156 8.050781 15.328125 7.109375 15.328125 C 5.128906 15.328125 3.785156 15.144531 3.386719 14.984375 C 3.554688 14.917969 3.9375 14.824219 4.652344 14.75 L 5.625 14.648438 L 4.683594 14.382812 C 4.363281 14.289062 4.167969 14.210938 4.058594 14.15625 C 4.207031 14.117188 4.488281 14.082031 4.925781 14.105469 L 5.125 14.117188 L 5.136719 10.863281 L 4.75 10.960938 L 4.75 13.726562 C 4.210938 13.710938 3.640625 13.777344 3.597656 14.105469 C 3.582031 14.230469 3.632812 14.351562 3.863281 14.476562 C 3.050781 14.621094 2.921875 14.804688 2.921875 14.984375 C 2.921875 15.214844 3.148438 15.398438 4.261719 15.546875 C 5.023438 15.648438 6.039062 15.703125 7.109375 15.703125 C 8.054688 15.703125 8.972656 15.660156 9.695312 15.578125 C 10.082031 15.640625 10.59375 15.671875 11.140625 15.671875 C 12.949219 15.671875 13.328125 15.402344 13.328125 15.171875 C 13.332031 15.035156 13.253906 14.898438 12.792969 14.800781 Z M 12.792969 14.800781"/><path style="stroke:none;fill-rule:nonzero;fill:#242424;fill-opacity:1" d="M 4.148438 7.070312 L 5.671875 6.773438 L 4.101562 6.121094 C 4.082031 6.113281 4.066406 6.105469 4.046875 6.09375 C 3.722656 5.894531 3.667969 5.484375 3.957031 5.226562 C 4.183594 5.03125 4.554688 5.027344 4.820312 5.191406 C 5.441406 5.570312 6.90625 6.46875 7.476562 6.820312 C 7.578125 6.882812 7.566406 7.015625 7.449219 7.0625 L 4.585938 8.136719 C 4.566406 8.144531 4.546875 8.148438 4.527344 8.15625 C 4.148438 8.261719 3.734375 8.046875 3.675781 7.683594 C 3.632812 7.410156 3.847656 7.152344 4.148438 7.070312 Z M 4.148438 7.070312"/><path style="stroke:none;fill-rule:nonzero;fill:#242424;fill-opacity:1" d="M 11.976562 7.039062 L 10.453125 6.742188 L 12.023438 6.089844 C 12.042969 6.082031 12.058594 6.074219 12.078125 6.0625 C 12.402344 5.863281 12.457031 5.453125 12.167969 5.195312 C 11.941406 5 11.570312 4.996094 11.304688 5.160156 C 10.683594 5.539062 9.21875 6.4375 8.648438 6.789062 C 8.546875 6.851562 8.558594 6.984375 8.675781 7.03125 L 11.539062 8.105469 C 11.558594 8.113281 11.578125 8.117188 11.597656 8.125 C 11.976562 8.230469 12.390625 8.015625 12.449219 7.652344 C 12.492188 7.378906 12.277344 7.121094 11.976562 7.039062 Z M 11.976562 7.039062"/><path style="fill-rule:nonzero;fill:#6d4c41;fill-opacity:1;stroke-width:1;stroke-linecap:butt;stroke-linejoin:miter;stroke:#6d4c41;stroke-opacity:1;stroke-miterlimit:10" d="M 52.21875 22.90625 C 52.21875 22.90625 52.1875 23.21875 52.15625 23.78125 C 52.125 23.9375 52.125 24.0625 52.125 24.25 C 52.0625 24.4375 52 24.65625 51.9375 24.90625 C 51.875 25.15625 51.8125 25.40625 51.75 25.65625 C 51.65625 25.90625 51.5625 26.15625 51.46875 26.40625 C 51.28125 26.9375 51.03125 27.5 50.71875 28.0625 C 50.40625 28.625 50.03125 29.1875 49.625 29.75 C 49.1875 30.3125 48.75 30.875 48.21875 31.375 C 47.6875 31.90625 47.125 32.375 46.53125 32.84375 C 45.90625 33.25 45.3125 33.6875 44.65625 34.03125 C 44.03125 34.40625 43.34375 34.625 42.71875 34.90625 C 42.0625 35.125 41.40625 35.34375 40.78125 35.46875 C 40.125 35.625 39.5625 35.6875 38.96875 35.71875 C 38.4375 35.78125 37.90625 35.78125 37.46875 35.75 C 37 35.75 36.625 35.6875 36.28125 35.625 C 35.65625 35.53125 35.28125 35.4375 35.28125 35.4375 C 34.21875 35.15625 33.53125 34.0625 33.8125 32.96875 C 34 32.28125 34.5 31.75 35.15625 31.53125 L 35.5 31.4375 C 35.5 31.4375 35.78125 31.34375 36.21875 31.25 C 36.4375 31.1875 36.71875 31.125 37.03125 31.03125 C 37.34375 30.9375 37.65625 30.84375 38.03125 30.6875 C 38.40625 30.59375 38.78125 30.40625 39.1875 30.25 C 39.59375 30.09375 40 29.84375 40.4375 29.65625 C 40.84375 29.40625 41.28125 29.1875 41.6875 28.90625 C 42.125 28.65625 42.53125 28.34375 42.9375 28.0625 C 43.34375 27.75 43.78125 27.4375 44.125 27.09375 C 44.5 26.78125 44.84375 26.4375 45.1875 26.09375 C 45.5 25.71875 45.84375 25.40625 46.125 25.0625 C 46.375 24.71875 46.65625 24.40625 46.875 24.09375 C 47.125 23.75 47.3125 23.5 47.4375 23.25 C 47.53125 23.125 47.625 23.03125 47.6875 22.9375 C 47.78125 22.8125 47.84375 22.65625 47.90625 22.53125 C 48.15625 22.0625 48.34375 21.78125 48.34375 21.78125 C 48.90625 20.78125 50.1875 20.46875 51.15625 21.0625 C 51.875 21.46875 52.21875 22.1875 52.21875 22.90625 Z M 52.21875 22.90625" transform="matrix(0.125,0,0,0.125,0,0)"/><path style="fill-rule:nonzero;fill:#6d4c41;fill-opacity:1;stroke-width:1;stroke-linecap:butt;stroke-linejoin:miter;stroke:#6d4c41;stroke-opacity:1;stroke-miterlimit:10" d="M 79.625 21.78125 C 79.625 21.78125 79.8125 22.0625 80.0625 22.5625 C 80.125 22.65625 80.1875 22.84375 80.28125 22.9375 C 80.34375 23.03125 80.4375 23.15625 80.5 23.28125 C 80.65625 23.5 80.84375 23.75 81.09375 24.09375 C 81.3125 24.40625 81.59375 24.71875 81.84375 25.0625 C 82.125 25.40625 82.46875 25.71875 82.78125 26.09375 C 83.125 26.4375 83.46875 26.78125 83.84375 27.125 C 84.1875 27.46875 84.625 27.75 85 28.0625 C 85.4375 28.375 85.8125 28.6875 86.25 28.90625 C 86.6875 29.1875 87.125 29.4375 87.53125 29.65625 C 87.96875 29.84375 88.375 30.09375 88.78125 30.25 C 89.1875 30.40625 89.5625 30.59375 89.9375 30.6875 C 90.28125 30.84375 90.625 30.9375 90.9375 31.03125 C 91.25 31.125 91.53125 31.21875 91.75 31.25 C 92.1875 31.375 92.46875 31.4375 92.46875 31.4375 L 92.78125 31.5625 C 93.875 31.875 94.4375 33.03125 94.125 34.09375 C 93.875 34.78125 93.34375 35.28125 92.65625 35.4375 C 92.65625 35.4375 92.3125 35.53125 91.65625 35.65625 C 91.34375 35.71875 90.96875 35.75 90.5 35.78125 C 90.03125 35.8125 89.53125 35.8125 88.96875 35.75 C 88.40625 35.71875 87.8125 35.625 87.1875 35.5 C 86.5625 35.375 85.90625 35.15625 85.25 34.9375 C 84.625 34.65625 83.90625 34.40625 83.3125 34.03125 C 82.65625 33.6875 82.03125 33.28125 81.40625 32.875 C 80.84375 32.375 80.25 31.9375 79.75 31.40625 C 79.21875 30.90625 78.78125 30.3125 78.34375 29.78125 C 77.9375 29.21875 77.5625 28.65625 77.25 28.09375 C 76.9375 27.53125 76.6875 26.96875 76.5 26.4375 C 76.375 26.1875 76.28125 25.9375 76.21875 25.6875 C 76.125 25.40625 76.0625 25.15625 76 24.9375 C 75.9375 24.6875 75.875 24.46875 75.84375 24.28125 C 75.8125 24.0625 75.8125 23.9375 75.8125 23.8125 C 75.75 23.25 75.75 22.90625 75.75 22.90625 C 75.71875 21.78125 76.625 20.84375 77.78125 20.8125 C 78.5625 20.75 79.25 21.15625 79.625 21.78125 Z M 79.625 21.78125" transform="matrix(0.125,0,0,0.125,0,0)"/></g></svg>

<svg xmlns="http://www.w3.org/2000/svg" width="16pt" height="16pt" viewBox="0 0 16 16"><defs><clipPath id="b"><path d="M3 8h10v6H3Zm0 0"/></clipPath><clipPath id="c"><path d="M8 8.602c-2.117 0-4.418 1.773-4.418 3.96 0 .61.703.965 1.328.72.774-.31 1.918-.618 3.09-.618s2.316.309 3.09.617c.625.246 1.328-.11 1.328-.719 0-2.187-2.461-3.96-4.418-3.96m0 0"/></clipPath><clipPath id="d"><path d="M3 8h10v3H3Zm0 0"/></clipPath><clipPath id="e"><path d="M8 8.602c-2.117 0-4.418 1.773-4.418 3.96 0 .61.703.965 1.328.72.774-.31 1.918-.618 3.09-.618s2.316.309 3.09.617c.625.246 1.328-.11 1.328-.719 0-2.187-2.461-3.96-4.418-3.96m0 0"/></clipPath><clipPath id="f"><path d="M8 10.129c1.55 0 2.992.2 4.129.57V7.121H3.87v3.574C5.008 10.328 6.45 10.13 8 10.13m0 0"/></clipPath><linearGradient id="a" x1="64" x2="64" y1="110.28" y2="22.3" gradientTransform="matrix(.125 0 0 -.125 0 16.25)" gradientUnits="userSpaceOnUse"><stop offset=".566" style="stop-color:#f6a323;stop-opacity:1"/><stop offset=".917" style="stop-color:#fee133;stop-opacity:1"/></linearGradient><linearGradient id="g" x1="64.981" x2="64.981" y1="85.333" y2="125.34" gradientTransform="scale(.125)" gradientUnits="userSpaceOnUse"><stop offset="0" style="stop-color:#469643;stop-opacity:1"/><stop offset=".02" style="stop-color:#489743;stop-opacity:1"/><stop offset=".443" style="stop-color:#6db141;stop-opacity:1"/><stop offset=".784" style="stop-color:#84c03f;stop-opacity:1"/><stop offset="1" style="stop-color:#8cc63f;stop-opacity:1"/></linearGradient></defs><path d="M8 14.984C4.508 14.984.75 12.801.75 8 .75 3.2 4.508 1.016 8 1.016c1.934 0 3.727.636 5.047 1.8C14.488 4.09 15.25 5.883 15.25 8c0 2.11-.762 3.895-2.203 5.172C11.723 14.344 9.93 14.984 8 14.984m0 0" style="stroke:none;fill-rule:nonzero;fill:url(#a)"/><path d="M8 1.266c1.875 0 3.61.617 4.879 1.738C14.266 4.23 15 5.957 15 8c0 2.035-.734 3.758-2.121 4.984-1.277 1.13-3.008 1.75-4.879 1.75-1.879 0-3.613-.613-4.879-1.726C1.734 11.789 1 10.058 1 8c0-2.066.734-3.8 2.121-5.02C4.383 1.875 6.117 1.266 8 1.266m0-.5C4.105.766.5 3.266.5 8c0 4.71 3.605 7.234 7.5 7.234s7.5-2.59 7.5-7.234C15.5 3.328 11.895.766 8 .766m0 0" style="stroke:none;fill-rule:nonzero;fill:#eb8f00;fill-opacity:1"/><path d="M8 8.602c-2.117 0-4.418 1.773-4.418 3.96 0 .61.703.965 1.328.72.774-.31 1.918-.618 3.09-.618s2.316.309 3.09.617c.625.246 1.328-.11 1.328-.719 0-2.187-2.461-3.96-4.418-3.96m0 0" style="stroke:none;fill-rule:nonzero;fill:#eb8f00;fill-opacity:1"/><g clip-path="url(#b)"><g clip-path="url(#c)"><path d="M8 8.602c-2.117 0-4.418 1.773-4.418 3.96 0 .61.703.965 1.328.72.774-.31 1.918-.618 3.09-.618s2.316.309 3.09.617c.625.246 1.328-.11 1.328-.719 0-2.187-2.461-3.96-4.418-3.96m0 0" style="stroke:none;fill-rule:nonzero;fill:#242424;fill-opacity:1"/></g></g><g clip-path="url(#d)"><g clip-path="url(#e)"><g clip-path="url(#f)"><path d="M8 9.098c.805 0 1.77.39 2.52 1.011.84.7 1.3 1.57 1.3 2.454 0 .207-.164.3-.316.3a.4.4 0 0 1-.156-.031c-.504-.2-1.836-.664-3.348-.664s-2.844.465-3.348.664a.4.4 0 0 1-.156.031c-.152 0-.316-.093-.316-.3 0-1.954 2.054-3.465 3.82-3.465m0-.496c-2.117 0-4.418 1.773-4.418 3.96 0 .477.43.797.914.797.137 0 .277-.023.414-.078.774-.308 1.918-.617 3.09-.617s2.316.309 3.09.617c.137.055.277.078.414.078.484 0 .914-.32.914-.796 0-2.188-2.461-3.961-4.418-3.961m0 0" style="stroke:none;fill-rule:nonzero;fill:#eb8f00;fill-opacity:1"/></g></g></g><path d="M14.09 14.027c-.016-.105-.176-.168-.356-.14-.183.027-.316.133-.3.238.015.11.175.172.355.145.184-.028.316-.133.3-.243M2.848 13.602c-.243-.075-.477-.02-.52.12-.047.145.117.321.356.395.242.074.476.02.52-.12.042-.142-.118-.321-.356-.395m0 0" style="stroke:none;fill-rule:nonzero;fill:#368231;fill-opacity:1"/><path d="M12.086 14.895c.61-.184.832-.395.805-.547-.04-.2-.891-.227-1.891-.086v-3.325s-1.016-.3-3.062-.3c-2.274 0-3.063.3-3.063.3v2.985c-.625-.04-1.098.039-1.121.207-.02.137.379.297.863.434-.945.097-1.515.25-1.515.421 0 .293 1.804.532 4.007.532.98 0 1.895-.047 2.59-.125.364.058.875.093 1.442.093 1.101 0 2-.14 2-.312 0-.121-.426-.223-1.055-.277m0 0" style="stroke:none;fill-rule:nonzero;fill:url(#g)"/><path d="M7.582 13.816c0-.324-.133-.586-.3-.586-.169 0-.302.262-.302.586 0 .329.133.59.301.59s.301-.261.301-.59M8.125 11.738c0-.281-.125-.508-.281-.508s-.282.227-.282.508c0 .285.125.512.282.512s.281-.227.281-.512M10.043 12.98c0-.503-.223-.906-.496-.906-.274 0-.496.403-.496.906 0 .5.222.907.496.907.273 0 .496-.407.496-.907M6.262 12.29c0-.227-.106-.411-.235-.411-.132 0-.234.184-.234.41 0 .227.102.41.234.41.13 0 .235-.183.235-.41m0 0" style="stroke:none;fill-rule:nonzero;fill:#368231;fill-opacity:1"/><path d="M12.793 14.8c.285-.175.34-.35.312-.488-.035-.183-.328-.453-1.855-.265L11.254 11l-.34-.082-.039 3.562.215-.03c.902-.13 1.422-.09 1.605-.044-.074.07-.265.188-.664.309L11.09 15l.98.082c.297.027.508.059.653.09-.297.062-.832.125-1.582.125a9.5 9.5 0 0 1-1.41-.094l-.028-.004-.027.004a24 24 0 0 1-2.567.125c-1.98 0-3.324-.183-3.722-.344.168-.066.55-.16 1.265-.234l.973-.102-.941-.265a4 4 0 0 1-.625-.227c.148-.039.43-.074.867-.05l.199.011.012-3.254-.387.098v2.766c-.54-.016-1.11.05-1.152.378-.016.125.035.247.265.372-.812.144-.941.328-.941.507 0 .23.226.414 1.34.563.761.101 1.777.156 2.847.156.946 0 1.864-.043 2.586-.125.387.063.899.094 1.446.094 1.808 0 2.187-.27 2.187-.5.004-.137-.074-.274-.535-.371m0 0" style="stroke:none;fill-rule:nonzero;fill:#368231;fill-opacity:1"/><path d="m4.148 7.07 1.524-.297-1.57-.652a.4.4 0 0 1-.055-.027c-.324-.2-.379-.61-.09-.867.227-.196.598-.2.863-.036.621.38 2.086 1.278 2.657 1.63.101.062.09.195-.028.242L4.586 8.137c-.02.008-.04.011-.059.02-.379.105-.793-.11-.851-.473-.043-.274.172-.532.472-.614M11.977 7.04l-1.524-.298 1.57-.652a.4.4 0 0 0 .055-.027c.324-.2.379-.61.09-.868-.227-.195-.598-.199-.863-.035-.621.38-2.086 1.277-2.657 1.63-.101.062-.09.194.028.241l2.863 1.074q.03.01.059.02c.379.105.793-.11.851-.473.043-.273-.172-.53-.472-.613m0 0" style="stroke:none;fill-rule:nonzero;fill:#242424;fill-opacity:1"/><path d="M52.219 22.906s-.032.313-.063.875c-.031.157-.031.282-.031.469a9 9 0 0 0-.187.656l-.188.75-.281.75a11 11 0 0 1-.75 1.657 17 17 0 0 1-1.094 1.687c-.437.563-.875 1.125-1.406 1.625-.532.531-1.094 1-1.688 1.469-.625.406-1.218.843-1.875 1.187-.625.375-1.312.594-1.937.875-.657.219-1.313.438-1.938.563a9.7 9.7 0 0 1-1.812.25 8 8 0 0 1-1.5.031c-.469 0-.844-.062-1.188-.125-.625-.094-1-.187-1-.187-1.062-.282-1.75-1.376-1.468-2.47a2.07 2.07 0 0 1 1.343-1.437l.344-.093s.281-.094.719-.188c.218-.062.5-.125.812-.219.313-.093.625-.187 1-.343.375-.094.75-.282 1.157-.438.406-.156.812-.406 1.25-.594.406-.25.843-.468 1.25-.75.437-.25.843-.562 1.25-.843.406-.313.843-.625 1.187-.97.375-.312.719-.655 1.063-1 .312-.374.656-.687.937-1.03.25-.344.531-.657.75-.97.25-.343.438-.593.563-.843.093-.125.187-.219.25-.312.093-.125.156-.282.218-.407.25-.468.438-.75.438-.75a2.016 2.016 0 0 1 2.812-.718c.719.406 1.063 1.125 1.063 1.843ZM79.625 21.781s.188.282.438.782c.062.093.124.28.218.375.063.093.156.218.219.343.156.219.344.469.594.813.219.312.5.625.75.968.281.344.625.657.937 1.032.344.343.688.687 1.063 1.031.344.344.781.625 1.156.938.438.312.813.625 1.25.843.438.282.875.532 1.281.75.438.188.844.438 1.25.594s.781.344 1.156.438c.344.156.688.25 1 .343s.594.188.813.219c.438.125.719.188.719.188l.312.125c1.094.312 1.656 1.468 1.344 2.53-.25.688-.781 1.188-1.469 1.344 0 0-.344.094-1 .22-.312.062-.687.093-1.156.124a8.5 8.5 0 0 1-1.531-.031 13 13 0 0 1-1.781-.25c-.626-.125-1.282-.344-1.938-.562-.625-.282-1.344-.532-1.937-.907-.657-.343-1.282-.75-1.907-1.156-.562-.5-1.156-.937-1.656-1.469-.531-.5-.969-1.093-1.406-1.625a17 17 0 0 1-1.094-1.687 11 11 0 0 1-.75-1.657q-.188-.375-.281-.75c-.094-.28-.156-.53-.219-.75-.062-.25-.125-.468-.156-.656-.031-.218-.031-.343-.031-.468-.063-.563-.063-.907-.063-.907-.031-1.125.875-2.062 2.031-2.093.781-.063 1.469.343 1.844.968Zm0 0" style="fill-rule:nonzero;fill:#6d4c41;fill-opacity:1;stroke-width:1;stroke-linecap:butt;stroke-linejoin:miter;stroke:#6d4c41;stroke-opacity:1;stroke-miterlimit:10" transform="scale(.125)"/></svg>
